X: 8584
T: Crofter, The
R: jig
M: 6/8
K: Adorian
a|Aee edd|eAA A2B|Aee edB|dBG G2B|
Aee edd|fdd eBB|dd/d/d edB|dBG G2:|
B|Aaa ged|eAA A2B|g>ee fdd|BGG G2B|
Aaa ged|fdd eBB|dd/d/d edB|dBG G2:|
e|A>AA BAB|eAA A2e|AA/A/A Bde|dBG G2e|
AA/A/A BAB|eAA eBB|dd/d/d edB|dBG G2:|
g|eAA ged|eAA A2g|eAA egd|BGG G2g|
eAA ged|fdd dBB|dd/d/d edB|dBG G2:|

